X:13
T:Hunter's Purse, The
R:reel
Z:id:hn-reel-13
M:C|
K:Ador
eAAG AGEF | G2AF GED2 | cBcd eged | cdef ged2 |
eAAG AGEF | G2AF GED2 | cBcd eged | cABG A2Bd :|
|: eaab agef | g2af gedB | cBcd eged | cdef ged2 |
eaab agef | g2af gedB | cBcd eged | cABG A2Bd :|
P:variations
|: eAAB AGEF | GEAF GED2 | cBcd (3efg ed | cdef gedg |
eAAB AGEF | GBAF GED2 | c3d (3efg ed | (3cBA BG A2 (3Bcd :|
|: eaab agef | geaf gedB | c3d (3efg ed | cdef gedg |
eaab agef | geaf gedB | cBcd (3efg ed | (3cBA BG A2 (3Bcd :|
<end>
<start>
